public/images/frog/congrats.svg

<svg width="319" height="257" viewBox="0 0 319 257" fill="none" xmlns="http://www.w3.org/2000/svg">
<path d="M190.941 172.187C193.758 174.401 193.982 177.426 193.405 180.547C192.073 187.799 189.65 194.715 186.593 201.406C185.414 203.982 183.44 205.923 181.258 207.656C177.463 210.673 173.668 213.714 169.311 215.92C167.458 216.859 167.426 216.867 167.94 218.856C168.437 220.79 168.702 222.756 168.678 224.745C168.678 225.435 168.926 225.732 169.52 226.029C173.748 228.155 176.572 231.372 177.302 236.178C178 240.735 176.035 246.022 171.261 248.076C171.141 248.124 171.044 248.221 170.924 248.301C171.253 248.758 171.791 248.862 172.184 249.167C172.753 249.617 173.307 250.082 173.211 250.9C173.114 251.751 172.481 252.168 171.767 252.425C169.881 253.099 167.915 253.107 165.966 252.97C159.395 252.513 152.961 251.189 146.55 249.745C146.422 249.713 146.301 249.649 146.109 249.544C145.981 248.774 146.438 248.221 146.679 247.611C148.484 243.086 149.102 238.4 148.644 233.563C148.323 230.129 147.714 226.767 146.181 223.63C145.732 222.715 145.154 221.889 144.456 221.151C143.518 220.156 142.394 219.538 140.974 219.586C140.87 219.586 140.774 219.594 140.669 219.586C137.244 219.193 135.206 221.055 133.866 223.887C132.422 226.936 131.908 230.233 131.539 233.555C131.122 237.253 131.587 240.863 132.446 244.45C132.743 245.701 133.192 246.897 133.737 248.06C133.922 248.453 134.155 248.838 134.171 249.368C134.524 250.355 134.355 251.165 133.705 251.879C130.761 255.152 127.159 256.99 122.69 256.934C121.727 256.917 120.836 256.645 120.01 256.139C119.288 255.69 118.863 255.04 118.55 254.262C118.349 253.748 118.807 252.954 118.133 252.729C117.635 252.561 117.01 252.802 116.44 252.842C114.458 252.962 112.468 253.171 110.487 252.89C109.957 252.818 109.42 252.729 108.906 252.577C108.016 252.312 107.109 251.967 107.005 250.876C106.909 249.841 107.719 249.36 108.481 248.894C108.762 248.718 109.051 248.549 109.476 248.301C107.478 247.482 105.922 246.303 104.774 244.618C100.947 239.018 102.817 230.762 108.754 227.208C109.436 226.799 109.733 226.358 109.773 225.564C110.013 220.798 111.353 216.361 113.913 212.318C114.29 211.724 114.683 211.122 115.156 210.609C115.71 210.007 115.646 209.758 114.867 209.469C111.554 208.266 108.457 206.637 105.625 204.527C101.26 201.27 97.9629 197.218 96.607 191.851C95.1789 186.187 96.3663 180.892 99.1664 175.885C101.766 171.24 105.424 167.549 109.725 164.476C110.567 163.875 111.097 163.193 111.417 162.206C112.557 158.676 113.824 155.194 115.646 151.945C116.897 149.722 118.438 147.732 120.58 146.272C121.944 145.342 123.452 144.732 125.113 144.724C127.768 144.708 129.654 146.016 130.817 148.374C131.138 149.032 131.379 149.722 131.772 150.669C131.892 150.083 131.996 149.754 132.029 149.417C132.534 144.194 137.019 142.068 141.752 143.913C144.609 145.021 146.767 147.042 148.676 149.345C150.722 151.816 152.495 154.488 154.092 157.264C154.686 158.291 155.456 158.917 156.531 159.374C161.377 161.412 165.709 164.228 169.223 168.167C173.138 172.556 175.417 177.61 175.152 183.603C175.016 186.644 174.133 189.5 172.753 192.204C172.609 192.493 172.36 192.75 172.376 193.119C173.419 192.87 174.173 192.204 174.599 191.073C175.714 188.112 176.548 185.055 177.776 182.135C178.418 180.619 179.003 179.078 179.597 177.538C180.175 176.046 181.033 174.722 182.02 173.382C182.541 173.35 182.638 173.751 182.822 174.056C184.01 176.054 185.021 178.148 186.184 180.161C186.457 180.627 186.713 181.108 187.058 181.517C187.532 182.087 187.949 182.031 188.294 181.373C188.47 181.044 188.535 180.675 188.623 180.314C189.201 177.995 189.786 175.677 190.372 173.358C190.476 172.941 190.5 172.475 190.974 172.162L190.941 172.187Z" fill="#00CF4B"/>
<path d="M136 165.5H131.5L133.5 164L136 165.5Z" fill="#E13A40"/>
<path d="M134.242 249.44C132.469 246.472 131.707 243.206 131.354 239.845C130.809 234.782 131.418 229.832 133.127 225.034C133.376 224.344 133.697 223.662 134.074 223.028C136.112 219.554 137.869 219.009 141.632 219.354C143.485 219.522 144.688 220.798 145.675 222.274C147.424 224.89 148.082 227.882 148.588 230.915C149.422 235.937 149.149 240.912 147.633 245.79C147.24 247.041 146.702 248.237 146.084 249.464C142.145 249.023 138.246 248.927 134.258 249.448L134.242 249.44Z" fill="#DBFF9E"/>
<path d="M125.259 148.192C127.781 149.485 128.651 152.039 127.498 154.505C126.748 156.105 125.193 157.092 123.573 156.993C122.051 156.895 120.757 155.722 120.203 153.99C119.126 150.603 122.562 147.14 125.259 148.192Z" fill="#221714"/>
<path d="M139.359 146.058C142.191 146.189 144.041 148.153 144.014 150.875C143.995 152.642 142.989 154.184 141.473 154.766C140.047 155.307 138.383 154.776 137.161 153.43C134.778 150.794 136.469 146.217 139.359 146.058Z" fill="#221714"/>
<path d="M135 174.5C131 174.9 129.833 169 129 165.5L138.5 164C139.167 168 139 174.1 135 174.5Z" fill="#E13A40"/>
<path d="M124.273 152.357C123.832 151.534 123.92 150.862 124.571 150.309C125.001 149.952 125.498 149.908 126.005 150.158C126.645 150.472 126.965 150.992 126.998 151.685C127.02 152.173 126.866 152.606 126.402 152.834C125.641 153.202 124.968 152.921 124.284 152.357H124.273Z" fill="#FEFEFE"/>
<path d="M140.226 150.275C139.483 149.708 139.285 149.06 139.648 148.288C139.891 147.784 140.325 147.539 140.89 147.556C141.603 147.576 142.109 147.917 142.427 148.534C142.649 148.969 142.688 149.427 142.361 149.827C141.821 150.477 141.092 150.5 140.236 150.27L140.226 150.275Z" fill="#FEFEFE"/>
<path d="M126 164.5C126.5 165 127.8 165.5 129 165.5C130.5 165.5 132.5 164 133.5 164C134.5 164 134.5 164.5 137.5 164.5C139.9 164.5 140.833 163.5 141 163" stroke="black" stroke-linecap="round"/>
<path d="M140.866 206.187L124.495 209.655C138.836 212.757 151.545 206.483 156.107 202.959L140.866 206.187Z" fill="#00C62E"/>
<path d="M164.893 126.371C164.273 124.534 163.676 122.737 163.134 120.926C162.006 117.136 160.903 113.339 159.788 109.545C159.487 108.521 159.658 108.286 160.708 108.341C169.469 108.807 178.229 109.279 186.99 109.75C198.227 110.358 209.463 110.972 220.699 111.586C221.519 111.632 221.641 111.799 221.339 112.527C219.402 117.175 217.346 121.77 215.218 126.393C214.977 126.68 214.688 126.6 214.427 126.597C204.877 126.383 195.324 126.281 185.767 126.286C179.209 126.291 172.653 126.38 166.095 126.504C165.707 126.512 165.311 126.584 164.883 126.363L164.893 126.371Z" fill="#FFF500"/>
<path d="M170.363 145.402C169.398 142.246 168.482 139.111 167.584 135.98C167.18 134.566 166.795 133.143 166.402 131.672C166.727 131.318 167.146 131.4 167.524 131.39C172.637 131.211 177.745 131.121 182.864 131.038C192.479 130.883 202.091 130.931 211.705 131.121C212.097 131.126 212.492 131.12 212.91 131.332C212.239 133.306 211.309 135.145 210.466 137.026C209.211 139.828 207.918 142.61 206.61 145.443C206.385 145.769 206.096 145.665 205.835 145.656C194.834 145.457 183.834 145.438 172.832 145.519C172.032 145.525 171.216 145.706 170.363 145.402Z" fill="#FFF500"/>
<path d="M204.278 150.372C203.588 152.324 202.664 154.135 201.827 155.981C200.749 158.364 199.628 160.727 198.496 163.141C198.189 163.404 197.863 163.364 197.548 163.356C192.941 163.324 188.33 163.308 183.725 163.294C181.467 163.289 179.213 163.322 176.963 163.337C176.504 163.337 176.031 163.435 175.537 163.19C174.671 160.81 174.066 158.403 173.354 156.029C172.82 154.244 172.33 152.444 171.818 150.604C172.056 150.269 172.396 150.329 172.707 150.324C178.702 150.209 184.702 150.102 190.704 150.102C194.93 150.102 199.16 150.115 203.389 150.193C203.681 150.196 203.984 150.172 204.291 150.369L204.278 150.372Z" fill="#FFF500"/>
<path d="M212.996 131.343C205.83 131.194 198.708 131.125 191.579 131.156C183.226 131.193 174.874 131.349 166.46 131.612C165.732 129.933 165.329 128.173 164.837 126.385C181.581 125.99 198.324 126.025 215.132 126.436C214.617 128.13 213.83 129.723 212.997 131.337L212.996 131.343Z" fill="#6BCEF5"/>
<path d="M188.421 184.916C187.444 186.628 186.763 188.414 185.913 190.115C185.718 190.506 185.537 190.912 185.32 191.293C185.176 191.545 184.985 191.788 184.633 191.761C184.275 191.733 184.155 191.459 184.049 191.177C183.252 189.12 182.689 186.989 181.987 184.898C181.957 184.808 181.922 184.712 181.856 184.592C180.247 179.325 178.68 174.084 177.106 168.848C177.062 168.708 177.037 168.561 177.004 168.363C177.321 168.05 177.7 168.094 178.059 168.086C183.677 167.982 189.293 167.948 194.909 167.945C195.296 167.943 195.696 167.913 196.108 168.124C195.315 170.295 194.271 172.321 193.319 174.395C191.709 177.891 190.065 181.374 188.416 184.915L188.421 184.916Z" fill="#FFF500"/>
<path d="M204.358 150.388C193.514 150.208 182.715 150.293 171.862 150.559C171.131 148.92 170.745 147.2 170.295 145.437C175.31 145.34 180.311 145.277 185.32 145.269C192.362 145.257 199.406 145.328 206.512 145.478C206.175 146.873 205.422 148.109 204.877 149.44C204.75 149.755 204.568 150.047 204.364 150.389L204.358 150.388Z" fill="#6BCEF5"/>
<path d="M196.192 168.147C191.254 168.098 186.351 168.174 181.451 168.234C180.005 168.25 178.562 168.285 177.06 168.315C176.527 167.561 176.444 166.675 176.175 165.848C175.894 164.994 175.695 164.121 175.468 163.206C183.1 163.071 190.719 163.1 198.404 163.183C197.884 164.906 197.053 166.509 196.192 168.147Z" fill="#6BCEF5"/>
<path fill-rule="evenodd" clip-rule="evenodd" d="M104.382 95.786C105.987 96.9211 107.475 97.5096 108.594 97.4381C113.124 97.149 123.711 85.2862 123.733 71.4847C123.754 57.6832 117.011 46.9263 108.672 47.4585C103.843 47.7667 99.5375 51.7927 96.7644 57.8073C93.0834 54.7426 88.9843 53.4063 85.2117 54.4806C79.104 56.2199 75.5975 63.781 75.8532 73.0378C71.3377 70.8603 66.8731 70.447 63.4071 72.3007C56.0386 76.2417 55.9743 88.9372 63.2635 100.657C70.5527 112.376 85.8012 116.882 89.8037 114.741C92.13 113.497 94.263 108.079 94.2105 101.459C96.0851 102.179 97.6967 102.412 98.7741 102.105C100.486 101.618 102.627 99.26 104.382 95.786Z" fill="#FF8BCA"/>
<path fill-rule="evenodd" clip-rule="evenodd" d="M166.448 60.1886C166.145 59.9977 165.834 59.7833 165.519 59.5465C163.879 65.482 160.591 69.7848 158.193 70.3052C154.068 71.2005 141.575 63.2858 138.04 50.9454C134.505 38.605 137.797 27.2649 145.392 25.6166C148.965 24.8413 152.853 26.3482 156.337 29.4459C158.467 21.1004 163.529 15.2302 169.436 15.2302C176.245 15.2302 181.932 23.0302 183.297 33.4304C184.747 33.0774 186.192 33.0318 187.588 33.3348C195.183 34.9831 198.475 46.3232 194.94 58.6636C191.405 71.0041 178.912 78.9188 174.787 78.0235C171.51 77.3124 166.572 69.5393 166.448 60.1886Z" fill="#6BCEF5"/>
<path d="M208.77 33.5064C205.878 43.6001 209.5 53.0772 212.056 53.632C214.613 54.1868 222.922 47.2988 225.814 37.2052C228.705 27.1115 227.233 18.101 222.527 17.0796C217.82 16.0582 211.661 23.4127 208.77 33.5064Z" fill="#FB7A35"/>
<path d="M116.923 22.6277C119.814 32.7214 116.193 42.1985 113.636 42.7533C111.08 43.3081 102.77 36.4202 99.8788 26.3265C96.9875 16.2328 98.459 7.2223 103.166 6.20091C107.872 5.17952 114.031 12.5341 116.923 22.6277Z" fill="#FFF500"/>
<path d="M46.9626 116.568C53.9487 121.467 56.9937 127.6 55.8716 128.527C54.7494 129.454 46.4677 127.645 39.4815 122.746C32.4954 117.848 28.5067 112.494 30.5726 110.788C32.6384 109.082 39.9765 111.67 46.9626 116.568Z" fill="#6BCEF5"/>
<path d="M271.781 132.081C264.794 136.98 261.749 143.113 262.872 144.04C263.994 144.966 272.276 143.158 279.262 138.259C286.248 133.361 290.236 128.007 288.171 126.301C286.105 124.595 278.767 127.183 271.781 132.081Z" fill="#6BCEF5"/>
<path d="M83.405 11.1148C87.7244 17.2534 87.725 23.7207 86.2245 24.3597C84.7241 24.9987 77.7215 21.5133 73.402 15.3747C69.0826 9.2361 67.8203 3.30616 70.5825 2.12983C73.3448 0.953495 79.0856 4.97622 83.405 11.1148Z" fill="#FF8BCA"/>
<path d="M246.447 29.3293C241.368 35.1977 240.549 41.6415 241.964 42.3643C243.378 43.087 250.796 40.0162 255.875 34.1479C260.955 28.2795 262.963 22.4436 260.359 21.113C257.756 19.7824 251.527 23.461 246.447 29.3293Z" fill="#FF8BCA"/>
<path d="M1.51286 75.1415C1.03873 74.8583 0.424767 75.013 0.141525 75.4871C-0.141717 75.9613 0.0130221 76.5752 0.487145 76.8585L1.51286 75.1415ZM0.487145 76.8585L77.4871 122.858L78.5129 121.142L1.51286 75.1415L0.487145 76.8585Z" fill="#FB7A35"/>
<path d="M268.226 124.058C267.759 124.352 267.142 124.212 266.847 123.745C266.553 123.278 266.693 122.661 267.16 122.366L268.226 124.058ZM318.277 92.5098L268.226 124.058L267.16 122.366L317.211 90.8178L318.277 92.5098Z" fill="#FB7A35"/>
<path d="M122.951 18.6909C122.78 18.1657 122.216 17.8783 121.691 18.049C121.166 18.2197 120.878 18.7838 121.049 19.3091L122.951 18.6909ZM121.049 19.3091L147.049 99.3091L148.951 98.6909L122.951 18.6909L121.049 19.3091Z" fill="#6BCEF5"/>
<path d="M197.212 100.607C196.923 101.078 196.308 101.225 195.837 100.936C195.366 100.647 195.219 100.031 195.508 99.5606L197.212 100.607ZM235.962 37.5109L197.212 100.607L195.508 99.5606L234.257 36.4642L235.962 37.5109Z" fill="#FF8BCA"/>
<path fill-rule="evenodd" clip-rule="evenodd" d="M233.722 99.1017C231.852 100.134 230.243 100.676 229.169 100.621C224.823 100.399 217.649 89.835 221.309 77.4405C224.969 65.046 234.422 55.3288 242.422 55.7364C247.055 55.9724 250.185 59.5517 251.289 64.9297C255.7 62.1464 260.059 60.9118 263.456 61.8448C268.956 63.3553 270.363 70.1154 267.645 78.4302C272.634 76.4378 277.102 76.0295 279.991 77.6647C286.135 81.1419 282.812 92.5427 272.569 103.129C262.326 113.716 246.235 117.89 242.898 116.002C240.959 114.904 240.321 110.057 242.137 104.111C240.116 104.773 238.482 104.996 237.512 104.729C235.97 104.306 234.509 102.207 233.722 99.1017Z" fill="#FFF500"/>
</svg>

<svg width="319" height="257" fill="none" xmlns="http://www.w3.org/2000/svg"><path d="M190.941 172.187c2.817 2.214 3.041 5.239 2.464 8.36-1.332 7.252-3.755 14.168-6.812 20.859-1.179 2.576-3.153 4.517-5.335 6.25-3.795 3.017-7.59 6.058-11.947 8.264-1.853.939-1.885.947-1.371 2.936.497 1.934.762 3.9.738 5.889 0 .69.248.987.842 1.284 4.228 2.126 7.052 5.343 7.782 10.149.698 4.557-1.267 9.844-6.041 11.898-.12.048-.217.145-.337.225.329.457.867.561 1.26.866.569.45 1.123.915 1.027 1.733-.097.851-.73 1.268-1.444 1.525-1.886.674-3.852.682-5.801.545-6.571-.457-13.005-1.781-19.416-3.225-.128-.032-.249-.096-.441-.201-.128-.77.329-1.323.57-1.933 1.805-4.525 2.423-9.211 1.965-14.048-.321-3.434-.93-6.796-2.463-9.933a10.01 10.01 0 0 0-1.725-2.479c-.938-.995-2.062-1.613-3.482-1.565-.104 0-.2.008-.305 0-3.425-.393-5.463 1.469-6.803 4.301-1.444 3.049-1.958 6.346-2.327 9.668-.417 3.698.048 7.308.907 10.895.297 1.251.746 2.447 1.291 3.61.185.393.418.778.434 1.308.353.987.184 1.797-.466 2.511-2.944 3.273-6.546 5.111-11.015 5.055a5.225 5.225 0 0 1-2.68-.795c-.722-.449-1.147-1.099-1.46-1.877-.201-.514.257-1.308-.417-1.533-.498-.168-1.123.073-1.693.113-1.982.12-3.972.329-5.953.048a10.628 10.628 0 0 1-1.581-.313c-.89-.265-1.797-.61-1.901-1.701-.096-1.035.714-1.516 1.476-1.982.281-.176.57-.345.995-.593-1.998-.819-3.554-1.998-4.702-3.683-3.827-5.6-1.957-13.856 3.98-17.41.682-.409.979-.85 1.019-1.644.24-4.766 1.58-9.203 4.14-13.246.377-.594.77-1.196 1.243-1.709.554-.602.49-.851-.289-1.14-3.313-1.203-6.41-2.832-9.242-4.942-4.365-3.257-7.662-7.309-9.018-12.676-1.428-5.664-.24-10.959 2.56-15.966 2.599-4.645 6.257-8.336 10.558-11.409.842-.601 1.372-1.283 1.692-2.27 1.14-3.53 2.407-7.012 4.229-10.261 1.251-2.223 2.792-4.213 4.934-5.673 1.364-.93 2.872-1.54 4.533-1.548 2.655-.016 4.541 1.292 5.704 3.65.321.658.562 1.348.955 2.295.12-.586.224-.915.257-1.252.505-5.223 4.99-7.349 9.723-5.504 2.857 1.108 5.015 3.129 6.924 5.432 2.046 2.471 3.819 5.143 5.416 7.919.594 1.027 1.364 1.653 2.439 2.11 4.846 2.038 9.178 4.854 12.692 8.793 3.915 4.389 6.194 9.443 5.929 15.436-.136 3.041-1.019 5.897-2.399 8.601-.144.289-.393.546-.377.915 1.043-.249 1.797-.915 2.223-2.046 1.115-2.961 1.949-6.018 3.177-8.938.642-1.516 1.227-3.057 1.821-4.597.578-1.492 1.436-2.816 2.423-4.156.521-.032.618.369.802.674 1.188 1.998 2.199 4.092 3.362 6.105.273.466.529.947.874 1.356.474.57.891.514 1.236-.144.176-.329.241-.698.329-1.059a2210.26 2210.26 0 0 1 1.749-6.956c.104-.417.128-.883.602-1.196l-.033.025Z" fill="#00CF4B"/><path d="M136 165.5h-4.5l2-1.5 2.5 1.5Z" fill="#E13A40"/><path d="M134.242 249.44c-1.773-2.968-2.535-6.234-2.888-9.595-.545-5.063.064-10.013 1.773-14.811.249-.69.57-1.372.947-2.006 2.038-3.474 3.795-4.019 7.558-3.674 1.853.168 3.056 1.444 4.043 2.92 1.749 2.616 2.407 5.608 2.913 8.641.834 5.022.561 9.997-.955 14.875-.393 1.251-.931 2.447-1.549 3.674-3.939-.441-7.838-.537-11.826-.016l-.016-.008Z" fill="#DBFF9E"/><path d="M125.259 148.192c2.522 1.293 3.392 3.847 2.239 6.313-.75 1.6-2.305 2.587-3.925 2.488-1.522-.098-2.816-1.271-3.37-3.003-1.077-3.387 2.359-6.85 5.056-5.798ZM139.359 146.058c2.832.131 4.682 2.095 4.655 4.817-.019 1.767-1.025 3.309-2.541 3.891-1.426.541-3.09.01-4.312-1.336-2.383-2.636-.692-7.213 2.198-7.372Z" fill="#221714"/><path d="M135 174.5c-4 .4-5.167-5.5-6-9l9.5-1.5c.667 4 .5 10.1-3.5 10.5Z" fill="#E13A40"/><path d="M124.273 152.357c-.441-.823-.353-1.495.298-2.048.43-.357.927-.401 1.434-.151.64.314.96.834.993 1.527.022.488-.132.921-.596 1.149-.761.368-1.434.087-2.118-.477h-.011ZM140.226 150.275c-.743-.567-.941-1.215-.578-1.987.243-.504.677-.749 1.242-.732.713.02 1.219.361 1.537.978.222.435.261.893-.066 1.293-.54.65-1.269.673-2.125.443l-.01.005Z" fill="#FEFEFE"/><path d="M126 164.5c.5.5 1.8 1 3 1 1.5 0 3.5-1.5 4.5-1.5s1 .5 4 .5c2.4 0 3.333-1 3.5-1.5" stroke="#000" stroke-linecap="round"/><path d="m140.866 206.187-16.371 3.468c14.341 3.102 27.05-3.172 31.612-6.696l-15.241 3.228Z" fill="#00C62E"/><path d="M164.893 126.371a164.794 164.794 0 0 1-1.759-5.445c-1.128-3.79-2.231-7.587-3.346-11.381-.301-1.024-.13-1.259.92-1.204 8.761.466 17.521.938 26.282 1.409 11.237.608 22.473 1.222 33.709 1.836.82.046.942.213.64.941-1.937 4.648-3.993 9.243-6.121 13.866-.241.287-.53.207-.791.204a1250.05 1250.05 0 0 0-28.66-.311c-6.558.005-13.114.094-19.672.218-.388.008-.784.08-1.212-.141l.01.008ZM170.363 145.402a562.434 562.434 0 0 1-2.779-9.422 258.92 258.92 0 0 1-1.182-4.308c.325-.354.744-.272 1.122-.282 5.113-.179 10.221-.269 15.34-.352 9.615-.155 19.227-.107 28.841.083.392.005.787-.001 1.205.211-.671 1.974-1.601 3.813-2.444 5.694-1.255 2.802-2.548 5.584-3.856 8.417-.225.326-.514.222-.775.213-11.001-.199-22.001-.218-33.003-.137-.8.006-1.616.187-2.469-.117ZM204.278 150.372c-.69 1.952-1.614 3.763-2.451 5.609-1.078 2.383-2.199 4.746-3.331 7.16-.307.263-.633.223-.948.215-4.607-.032-9.218-.048-13.823-.062-2.258-.005-4.512.028-6.762.043-.459 0-.932.098-1.426-.147-.866-2.38-1.471-4.787-2.183-7.161-.534-1.785-1.024-3.585-1.536-5.425.238-.335.578-.275.889-.28 5.995-.115 11.995-.222 17.997-.222 4.226 0 8.456.013 12.685.091.292.003.595-.021.902.176l-.013.003Z" fill="#FFF500"/><path d="M212.996 131.343a851.079 851.079 0 0 0-21.417-.187c-8.353.037-16.705.193-25.119.456-.728-1.679-1.131-3.439-1.623-5.227 16.744-.395 33.487-.36 50.295.051-.515 1.694-1.302 3.287-2.135 4.901l-.001.006Z" fill="#6BCEF5"/><path d="M188.421 184.916c-.977 1.712-1.658 3.498-2.508 5.199-.195.391-.376.797-.593 1.178-.144.252-.335.495-.687.468-.358-.028-.478-.302-.584-.584-.797-2.057-1.36-4.188-2.062-6.279a1.724 1.724 0 0 0-.131-.306c-1.609-5.267-3.176-10.508-4.75-15.744a3.586 3.586 0 0 1-.102-.485c.317-.313.696-.269 1.055-.277a937.31 937.31 0 0 1 16.85-.141c.387-.002.787-.032 1.199.179-.793 2.171-1.837 4.197-2.789 6.271-1.61 3.496-3.254 6.979-4.903 10.52l.005.001Z" fill="#FFF500"/><path d="M204.358 150.388c-10.844-.18-21.643-.095-32.496.171-.731-1.639-1.117-3.359-1.567-5.122 5.015-.097 10.016-.16 15.025-.168a927.85 927.85 0 0 1 21.192.209c-.337 1.395-1.09 2.631-1.635 3.962-.127.315-.309.607-.513.949l-.006-.001ZM196.192 168.147c-4.938-.049-9.841.027-14.741.087-1.446.016-2.889.051-4.391.081-.533-.754-.616-1.64-.885-2.467-.281-.854-.48-1.727-.707-2.642 7.632-.135 15.251-.106 22.936-.023-.52 1.723-1.351 3.326-2.212 4.964Z" fill="#6BCEF5"/><path fill-rule="evenodd" clip-rule="evenodd" d="M104.382 95.786c1.605 1.135 3.093 1.724 4.212 1.652 4.53-.289 15.117-12.152 15.139-25.953.021-13.802-6.722-24.559-15.061-24.026-4.829.308-9.135 4.334-11.908 10.348-3.68-3.064-7.78-4.4-11.552-3.326-6.108 1.739-9.615 9.3-9.359 18.557-4.515-2.178-8.98-2.591-12.446-.737-7.368 3.94-7.433 16.636-.143 28.356 7.289 11.719 22.537 16.225 26.54 14.084 2.326-1.244 4.459-6.662 4.406-13.282 1.875.72 3.487.953 4.564.646 1.712-.487 3.853-2.845 5.608-6.319Z" fill="#FF8BCA"/><path fill-rule="evenodd" clip-rule="evenodd" d="M166.448 60.189a13.74 13.74 0 0 1-.929-.642c-1.64 5.935-4.928 10.238-7.326 10.758-4.125.895-16.618-7.02-20.153-19.36s-.243-23.68 7.352-25.328c3.573-.776 7.461.731 10.945 3.829 2.13-8.346 7.192-14.216 13.099-14.216 6.809 0 12.496 7.8 13.861 18.2 1.45-.353 2.895-.398 4.291-.095 7.595 1.648 10.887 12.988 7.352 25.329-3.535 12.34-16.028 20.255-20.153 19.36-3.277-.712-8.215-8.485-8.339-17.835Z" fill="#6BCEF5"/><path d="M208.77 33.506c-2.892 10.094.73 19.571 3.286 20.126 2.557.555 10.866-6.333 13.758-16.427 2.891-10.093 1.419-19.104-3.287-20.125-4.707-1.022-10.866 6.333-13.757 16.426Z" fill="#FB7A35"/><path d="M116.923 22.628c2.891 10.093-.73 19.57-3.287 20.125-2.556.555-10.866-6.333-13.757-16.427-2.892-10.093-1.42-19.104 3.287-20.125 4.706-1.021 10.865 6.333 13.757 16.427Z" fill="#FFF500"/><path d="M46.963 116.568c6.986 4.899 10.03 11.032 8.909 11.959-1.123.927-9.404-.882-16.39-5.781-6.987-4.898-10.975-10.252-8.91-11.958 2.066-1.706 9.405.882 16.39 5.78ZM271.781 132.081c-6.987 4.899-10.032 11.032-8.909 11.959 1.122.926 9.404-.882 16.39-5.781 6.986-4.898 10.974-10.252 8.909-11.958-2.066-1.706-9.404.882-16.39 5.78Z" fill="#6BCEF5"/><path d="M83.405 11.115c4.32 6.138 4.32 12.606 2.82 13.245-1.5.639-8.503-2.847-12.823-8.985-4.32-6.139-5.582-12.069-2.82-13.245 2.763-1.177 8.504 2.846 12.823 8.985ZM246.447 29.33c-5.079 5.868-5.898 12.312-4.483 13.034 1.414.723 8.832-2.348 13.911-8.216 5.08-5.869 7.088-11.704 4.484-13.035-2.603-1.33-8.832 2.348-13.912 8.216Z" fill="#FF8BCA"/><path d="M1.513 75.141A1 1 0 0 0 .487 76.86l1.026-1.718ZM.487 76.86l77 45.999 1.026-1.716-77-46-1.026 1.717ZM268.226 124.058a1 1 0 0 1-1.066-1.692l1.066 1.692Zm50.051-31.548-50.051 31.548-1.066-1.692 50.051-31.548 1.066 1.692Z" fill="#FB7A35"/><path d="M122.951 18.69a1 1 0 0 0-1.902.62l1.902-.62Zm-1.902.62 26 80 1.902-.62-26-80-1.902.62Z" fill="#6BCEF5"/><path d="M197.212 100.607a1 1 0 1 1-1.704-1.046l1.704 1.046Zm38.75-63.096-38.75 63.096-1.704-1.046 38.749-63.097 1.705 1.047Z" fill="#FF8BCA"/><path fill-rule="evenodd" clip-rule="evenodd" d="M233.722 99.102c-1.87 1.032-3.479 1.574-4.553 1.519-4.346-.222-11.52-10.786-7.86-23.18 3.66-12.395 13.113-22.112 21.113-21.705 4.633.236 7.763 3.816 8.867 9.194 4.411-2.784 8.77-4.018 12.167-3.085 5.5 1.51 6.907 8.27 4.189 16.585 4.989-1.992 9.457-2.4 12.346-.765 6.144 3.477 2.821 14.878-7.422 25.464-10.243 10.587-26.334 14.761-29.671 12.873-1.939-1.098-2.577-5.945-.761-11.891-2.021.662-3.655.885-4.625.618-1.542-.423-3.003-2.522-3.79-5.627Z" fill="#FFF500"/></svg>
